X: 24248
T: Lord Randall's Bride
R: polka
M: 2/4
K: Gmajor
D|G>A Be|dB B>e|dB c/B/A/G/|FA Ad|
G>A Be|de/f/ g>e|d/e/d/B/ Ad/c/|BG G:|
d|g>f a/g/f/e/|dB B>d|g>f e/f/g/e/|Be e2|
de/f/ g>a|b/a/g/f/ g>e|d/e/d/B/ Ad/c/|BG G:|

